packages/tokens/icons/cloudDown/size24Px.svg

<svg viewBox="0 0 24 24" fill="none" xmlns="http://www.w3.org/2000/svg" width="1em" height="1em"><path d="M12.4888 11.5293L12.4888 20.5293" stroke="currentColor" stroke-linecap="round" stroke-linejoin="round"/><path d="M16.4888 17.0293L12.4888 21.0293L8.48877 17.0293" stroke="currentColor" stroke-linecap="round" stroke-linejoin="round"/><path d="M18.6667 15.7905C20.8889 15.7905 22 13.6087 22 11.9723C22 10.0397 20.5376 8.44249 18.64 8.18917C18.3799 5.71782 16.2525 3.79053 13.6667 3.79053C11.4864 3.79053 9.632 5.16069 8.94809 7.07186C8.85503 7.06615 8.76119 7.06325 8.66667 7.06325C6.58419 7.06325 4.83623 8.46946 4.35411 10.3675C3.02107 10.5678 2 11.6985 2 13.0633C2 14.5695 3.24365 15.7905 4.77778 15.7905C4.88516 15.7905 5.0753 15.7905 5.33333 15.7905" stroke="currentColor" stroke-linecap="round" stroke-linejoin="round"/></svg>

<svg xmlns="http://www.w3.org/2000/svg" fill="none" viewBox="0 0 24 24" width="1em" height="1em"><path stroke="currentColor" stroke-linecap="round" stroke-linejoin="round" d="M12.489 11.53v9m4-3.5-4 4-4-4m10.178-1.24c2.222 0 3.333-2.181 3.333-3.818 0-1.932-1.462-3.53-3.36-3.783-.26-2.471-2.387-4.398-4.973-4.398-2.18 0-4.035 1.37-4.719 3.28a4.595 4.595 0 0 0-.281-.008c-2.083 0-3.83 1.406-4.313 3.304C3.021 10.567 2 11.698 2 13.063c0 1.506 1.244 2.727 2.778 2.727h.555"/></svg>
